dist/img/svg/ios.svg

<svg width="80" height="40" viewBox="0 0 80 40" xmlns="http://www.w3.org/2000/svg">
<path d="M3.66667 0.166626C1.62 0.166626 5.29365e-08 1.76663 5.29365e-08 3.76663C-8.1988e-05 4.24505 0.095197 4.71868 0.280269 5.15986C0.46534 5.60103 0.736492 6.0009 1.07788 6.33607C1.41926 6.67125 1.82403 6.93502 2.26852 7.11197C2.71302 7.28891 3.18833 7.37548 3.66667 7.36663C5.73333 7.36663 7.36667 5.76663 7.36667 3.76663C7.36667 1.76663 5.73333 0.166626 3.66667 0.166626ZM29.0333 0.233293C17.8333 0.233293 10.8333 7.86662 10.8333 20C10.8333 32.2333 17.8333 39.8333 29.0333 39.8333C40.1667 39.8333 47.2 32.2333 47.2 20C47.2 7.86662 40.1667 0.233293 29.0333 0.233293ZM65.1667 0.233293C56.8333 0.233293 50.9 4.83329 50.9 11.6666C50.9 17.1 54.2667 20.5 61.3333 22.1333L66.3 23.3333C71.1333 24.4333 73.1 26.0333 73.1 28.8C73.1 32 69.8667 34.2666 65.2667 34.2666C60.5667 34.2666 57.0333 31.9666 56.6667 28.4333H50C50.2667 35.5 56.0667 39.8333 64.8667 39.8333C74.1667 39.8333 80 35.2666 80 28C80 22.3 76.6667 19.0666 68.9333 17.3L64.5 16.3C59.8 15.1666 57.8667 13.6666 57.8667 11.1333C57.8667 7.93329 60.8 5.79996 65.1333 5.79996C69.5 5.79996 72.5 7.96663 72.8333 11.5333H79.3667C79.2 4.79996 73.6333 0.233293 65.1667 0.233293ZM29.0333 6.06663C35.8333 6.06663 40.2 11.5 40.2 20C40.2 28.5666 35.8333 34 29.0333 34C22.1667 34 17.8333 28.5666 17.8333 20C17.8333 11.5 22.1667 6.06663 29.0333 6.06663ZM0.37 11.0333V39.2H7V11.0333H0.366667H0.37Z" />
</svg>

<svg width="80" height="40" viewBox="0 0 80 40" xmlns="http://www.w3.org/2000/svg"><path d="M3.667.167C1.62.167 0 1.767 0 3.767a3.6 3.6 0 003.667 3.6c2.066 0 3.7-1.6 3.7-3.6s-1.634-3.6-3.7-3.6zm25.366.066c-11.2 0-18.2 7.634-18.2 19.767 0 12.233 7 19.833 18.2 19.833 11.134 0 18.167-7.6 18.167-19.833C47.2 7.867 40.167.233 29.033.233zm36.134 0c-8.334 0-14.267 4.6-14.267 11.434 0 5.433 3.367 8.833 10.433 10.466l4.967 1.2c4.833 1.1 6.8 2.7 6.8 5.467 0 3.2-3.233 5.467-7.833 5.467-4.7 0-8.234-2.3-8.6-5.834H50c.267 7.067 6.067 11.4 14.867 11.4C74.167 39.833 80 35.267 80 28c0-5.7-3.333-8.933-11.067-10.7l-4.433-1c-4.7-1.133-6.633-2.633-6.633-5.167 0-3.2 2.933-5.333 7.266-5.333 4.367 0 7.367 2.167 7.7 5.733h6.534C79.2 4.8 73.633.233 65.167.233zM29.033 6.067C35.833 6.067 40.2 11.5 40.2 20c0 8.567-4.367 14-11.167 14-6.866 0-11.2-5.433-11.2-14 0-8.5 4.334-13.933 11.2-13.933zM.37 11.033V39.2H7V11.033H.367.37z"/></svg>
